X: 305697
M: 6/8
L: 1/8
K: G
d/e//f// |\
g2g gbg | d2d d2^c/d/ | e2e e^de | B3 BcB |\
c2c cBc | ABc def | gdB cAd | G3 G2 H|]
E |\


